actions/22/document-edit-decrypt.svg

<!DOCTYPE svg>
<svg viewBox="0 0 22 22" version="1.1" xmlns="http://www.w3.org/2000/svg">
    <defs>
<style type="text/css" id="current-color-scheme">.ColorScheme-Text {color:#fcfcfc;}</style>
    </defs>
    <path class="ColorScheme-Text" style="fill:currentColor; fill-opacity:1; stroke:none" d="M 4,16 V 11 9 h 2 v 2 H 5 v 5 c 0,0 0,2 2,2 2,0 6,0 8,0 2,0 2,-2 2,-2 l 0,-5 H 16 V 9 h 2 v 2 5 c 0,0 0,3 -3,3 -3,0 -5,0 -8,0 C 4,19 4,16 4,16 Z M 8,11 V 9 h 2 v 2 z m 4,0 V 9 h 2 v 2 z M 6,8 V 6 h 2 v 2 z m 4,0 V 6 h 2 v 2 z m 4,0 V 6 h 2 V 8 Z M 4,5 V 3 H 5 6 V 5 Z M 8,5 V 3 h 2 v 2 z m 4,0 V 3 h 2 v 2 z m 4,0 V 3 h 1 1 v 2 z"/>
</svg>

<!DOCTYPE svg>
<svg viewBox="0 0 22 22" version="1.1" xmlns="http://www.w3.org/2000/svg">
    <defs>
        <style type="text/css" id="current-color-scheme">
            .ColorScheme-Text {
                color:#eff0f1;
            }
        </style>
    </defs>
    <path class="ColorScheme-Text" style="fill:currentColor; fill-opacity:1; stroke:none" d="M 4 19 L 4 18 L 4 11 L 4 9 L 6 9 L 6 11 L 5 11 L 5 18 L 17 18 L 17 11 L 16 11 L 16 9 L 18 9 L 18 11 L 18 19 L 5 19 L 4 19 Z M 8 11 L 8 9 L 10 9 L 10 11 L 8 11 Z M 12 11 L 12 9 L 14 9 L 14 11 L 12 11 Z M 6 8 L 6 6 L 8 6 L 8 8 L 6 8 Z M 10 8 L 10 6 L 12 6 L 12 8 L 10 8 Z M 14 8 L 14 6 L 16 6 L 16 8 L 14 8 Z M 4 5 L 4 3 L 5 3 L 6 3 L 6 5 L 4 5 Z M 8 5 L 8 3 L 10 3 L 10 5 L 8 5 Z M 12 5 L 12 3 L 14 3 L 14 5 L 12 5 Z M 16 5 L 16 3 L 17 3 L 18 3 L 18 5 L 16 5 Z"/>
</svg>
